X:1
T:Habanera
T:Habanera
T:From Carmen
T:Georges Bizet
T:arr.8notes.com & Zachary Chromey
C:Georges Bizet
Z:8notes.com & Zachary Chromey
%%score 1 2 3
L:1/8
M:2/4
K:F
V:1 treble nm="Violin" snm="Vln."
V:2 bass nm="Violoncello" snm="Vc."
V:3 alto nm="Viola" snm="Vla."
V:1
 z4 | z4 | z4 | z2 d^c | (3ccc =B_B | A>A ^G=G | (3F/G/F/ E/F/ GF | E z d^c | (3ccc =B_B | %9
 A>A ^G=G | (3F/G/F/ E/F/ GF | D2 d^c | (3ccc =B_B | A>A ^G=G | (3F/G/F/ E/F/ GF | E z d^c | %16
 (3ccc =B_B | A>A GF | (3E/F/E/ D/E/ FE ||[K:D] D2 z2 | z2 A2- | A4 | A3 G/A/ | B z z2 | z2 B2- | %25
 B4 | B2 (3ABc | d z/ A/ DE | F>A FE | D>E FG | A/A/A/A/ BA | G z/ B/ EF | G>B GF | E>F GA | %34
 B/B/B/B/ cB | A z z2 | z3/2 A/ FE | D>E FG | A/A/A/A/ dc | G z z2 | z3/2 B/ GF | E>F GA | %42
 c/B/^G/A/ f (3e/f/e/ | d z/ A/ d z |] %44
V:2
 .D,,z/(A,,/.F,).A,, | .D,,z/(A,,/.F,).A,, | .D,,z/(A,,/.F,).A,, | .D,,z/(A,,/.F,).A,, | %4
 .D,,z/(A,,/.F,).A,, | .D,,z/(A,,/.F,).A,, | .D,,z/(A,,/.F,).A,, | .D,,z/(A,,/.G,).A,, | %8
 .D,,z/(A,,/.G,).A,, | .D,,z/(A,,/.G,).A,, | .D,,z/(A,,/.G,).A,, | .D,,z/(A,,/.F,).A,, | %12
 .D,,z/(A,,/.F,).A,, | .D,,z/(A,,/.F,).A,, | .D,,z/(A,,/.F,).A,, | .D,,z/(B,,/.G,).A,, | %16
 .D,,z/(B,,/.G,).A,, | .D,,z/(B,,/.G,).A,, | .D,,z/(A,,/.G,).A,, ||[K:D] .D,,z/(A,,/.F,).A,, | %20
 .D,,z/(A,,/.F,).A,, | .D,,z/(A,,/.F,).A,, | D,,>A,, F,A,, | D,,>B,, G,B,, | D,,>B,, G,B,, | %25
 D,,>B,, G,B,, | D,,>A,, G,A,, | .D,,z/(A,,/.F,).A,, | .D,,z/(A,,/.F,).A,, | .D,,z/(A,,/.F,).A,, | %30
 .D,,z/(A,,/.F,).A,, | .D,,z/(B,,/.G,).A,, | .D,,z/(B,,/.G,).A,, | .D,,z/(B,,/.G,).A,, | %34
 .D,,z/(A,,/.G,).A,, | .D,,z/(A,,/.G,).A,, | .D,,z/(A,,/.G,).A,, | .D,,z/(A,,/.G,).A,, | %38
 .D,,z/(A,,/.G,).A,, | .D,,z/(B,,/.G,).A,, | .D,,z/(B,,/.G,).A,, | .D,,z/(B,,/.G,).A,, | %42
 [D,,A,,D,]4 | D z/ A,/ D/ z/ z |] %44
V:3
 z2 F2 | z2 F2 | z2 F2 | z2 FF | F z FF | F z FF | D z DD |[K:F] D z EE | E z EE | E z EE | %10
 ^C z CC | A, z FF | F z FF |[K:F] F z DD | D z DD | D z EE | E z EE | E z DD |[K:F] ^C z CC || %19
[K:D] z2 DC | (3=CCC B,_B, | A,>A, ^G,=G, | (3=F,/G,/F,/ E,/F,/ G,F, | E, z DC | (3=CCC B,_B, | %25
 A,>A, ^G,=G, | (3=F,/G,/F,/ E,/F,/ G,F, | F2 CA, |[K:D] D2 DA, | D2 DE | A2 GF | G2 EB, | G2 EB, | %33
 G2 EF |[K:D] G2 AG | F z/ A/ de | F z DA, | F,>A, DE | F2 BA | E z/ B,/ EF | G z EB, | %41
[K:D] B,2 EF | G2 c2 | D z/ A/ d/ z/ z |] %44

